;FLAVOR:Marlin
;TIME:12408
;Filament used: 5.88122m
;Layer height: 0.2
;MINX:81.935
;MINY:13.395
;MINZ:0.2
;MAXX:153.065
;MAXY:221.764
;MAXZ:2.12
;Generated with Cura_SteamEngine 4.8.0
M140 S50
M105
M190 S50
M104 S205
M105
M109 S205
M82 ;absolute extrusion mode
; Ender 3 Custom Start G-code
G92 E0 ; Reset Extruder
G28 ; Home all axes
G1 Z2.0 F3000 ; Move Z Axis up little to prevent scratching of Heat Bed
G1 X0.1 Y20 Z0.3 F5000.0 ; Move to start position
G1 X0.1 Y200.0 Z0.3 F1500.0 E15 ; Draw the first line
G1 X0.4 Y200.0 Z0.3 F5000.0 ; Move to side a little
G1 X0.4 Y20 Z0.3 F1500.0 E30 ; Draw the second line
G92 E0 ; Reset Extruder
G1 Z2.0 F3000 ; Move Z Axis up little to prevent scratching of Heat Bed
G1 X5 Y20 Z0.3 F5000.0 ; Move over to prevent blob squish
G92 E0
G92 E0
G1 F2700 E-5
;LAYER_COUNT:14
;LAYER:0
M107
;MESH:TilesLid.stl
G0 F6000 X91.105 Y127.749 Z0.2
;TYPE:WALL-INNER
G1 F2700 E0
G1 F1200 X93.213 Y125.641 E0.09915
G1 X93.16 Y125.513 E0.10376
G1 X92.907 Y124.9 E0.12582
G1 X89.303 Y124.9 E0.24569
G1 X89.05 Y125.513 E0.26774
G1 X88.997 Y125.641 E0.27235
G1 X91.105 Y127.749 E0.37151
G0 F6000 X91.105 Y127.183
;TYPE:WALL-OUTER
G1 F1200 X92.741 Y125.547 E0.44846
G1 X92.639 Y125.3 E0.45735
G1 X89.571 Y125.3 E0.55939
G1 X89.469 Y125.547 E0.56828
G1 X91.105 Y127.183 E0.64523
G0 F6000 X90.964 Y127.323
G0 X90.645 Y127.79
G0 X86.746 Y132.108
;TYPE:WALL-INNER
G1 F1200 X90.954 Y127.9 E0.84316
G1 X88.846 Y125.792 E0.89609
G1 X88.748 Y125.694 E0.89981
G1 X87.954 Y124.9 E0.93715
G1 X86.005 Y124.9 E1.00198
G1 X86.005 Y131.802 E1.23154
G1 X86.746 Y132.108 E1.2582
G0 F6000 X86.652 Y131.636
;TYPE:WALL-OUTER
G1 F1200 X90.388 Y127.9 E1.43393
G1 X87.788 Y125.3 E1.55623
G1 X86.405 Y125.3 E1.60223
G1 X86.405 Y131.534 E1.80957
G1 X86.652 Y131.636 E1.81846
G1 F2700 E-3.18154
G0 F6000 X86.577 Y131.819
G0 X86.272 Y131.624
G0 X86.277 Y125.172
G0 X88.026 Y124.726
G0 X88.841 Y125.522
G0 X89.185 Y124.723
G0 X93.025 Y124.723
G0 X93.369 Y125.522
G0 X94.184 Y124.726
G0 X97.026 Y124.726
G0 X97.841 Y125.522
G0 X98.185 Y124.723
G0 X100.823 Y124.718
G0 X100.828 Y120.88
G0 X101.627 Y120.536
G0 X100.831 Y118.079
G0 X101.627 Y117.264
G0 X100.828 Y116.92
G0 X100.828 Y111.88
G0 X101.627 Y111.536
G0 X100.641 Y109.478
G0 X99.569 Y109.478
G0 X86.272 Y95.624
G0 X86.272 Y88.176
G0 X86.645 Y88.019
G0 X86.646 Y86.779
G0 X86.272 Y86.624
G0 X86.272 Y79.176
G0 X86.659 Y79.012
G0 X86.661 Y77.785
G0 X86.272 Y77.624
G0 X86.272 Y70.176
G0 X86.673 Y70.007
G0 X86.675 Y68.791
G0 X86.272 Y68.624
G0 X86.272 Y61.176
G0 X86.687 Y61.017
G0 X86.684 Y59.792
G0 X86.272 Y59.624
G0 X86.272 Y52.176
G0 X86.701 Y52.031
G0 X86.684 Y50.792
G0 X86.272 Y50.624
G0 X86.272 Y43.176
G0 X86.684 Y43.008
G0 X86.684 Y41.792
G0 X86.272 Y41.624
G0 X86.272 Y34.176
G0 X86.684 Y34.008
G0 X86.684 Y32.792
G0 X86.272 Y32.624
G0 X86.272 Y25.176
G0 X86.746 Y24.108
;TYPE:WALL-INNER
G1 F2700 E1.81846
G1 F1200 X90.813 Y20.041 E2.00976
G1 X90.507 Y19.3 E2.03642
G1 X86.005 Y19.3 E2.18616
G1 X86.005 Y23.802 E2.3359
G1 X86.746 Y24.108 E2.36256
G0 F6000 X86.652 Y23.636
;TYPE:WALL-OUTER
G1 F1200 X90.341 Y19.947 E2.53608
G1 X90.239 Y19.7 E2.54497
G1 X86.405 Y19.7 E2.67249
G1 X86.405 Y23.534 E2.80001
G1 X86.652 Y23.636 E2.8089
G1 F2700 E-2.1911
G0 F6000 X86.577 Y23.819
G0 X89.185 Y22.356
G0 X91.105 Y20.436
G0 X94.523 Y23.854
G0 X96.676 Y23.864
G0 X100.105 Y20.436
G0 X103.566 Y23.896
G0 X105.635 Y23.905
G0 X109.105 Y20.436
G0 X112.606 Y23.937
G0 X114.593 Y23.946
G0 X118.105 Y20.436
G0 X121.649 Y23.979
G0 X123.552 Y23.988
G0 X127.105 Y20.436
G0 X130.689 Y24.02
G0 X132.51 Y24.029
G0 X136.105 Y20.436
G0 X139.73 Y24.062
G0 X141.468 Y24.07
G0 X145.105 Y20.436
G0 X149.464 Y24.108
;TYPE:WALL-INNER
G1 F2700 E2.8089
G1 F1200 X150.205 Y23.802 E2.83556
G1 X150.205 Y19.3 E2.9853
G1 X145.703 Y19.3 E3.13504
G1 X145.397 Y20.041 E3.1617
G1 X149.464 Y24.108 E3.353
G0 F6000 X149.558 Y23.636
;TYPE:WALL-OUTER
G1 F1200 X149.805 Y23.534 E3.36189
G1 X149.805 Y19.7 E3.48941
G1 X145.971 Y19.7 E3.61693
G1 X145.869 Y19.947 E3.62582
G1 X149.558 Y23.636 E3.79933
G0 F6000 X149.632 Y23.82
G0 X147.039 Y22.369
G0 X145.105 Y20.436
G0 X141.528 Y24.012
G0 X139.725 Y24.055
G0 X136.105 Y20.436
G0 X131.605 Y24.249
;TYPE:WALL-INNER
G1 F1200 X135.813 Y20.041 E3.99727
G1 X135.507 Y19.3 E4.02393
G1 X127.703 Y19.3 E4.28349
G1 X127.397 Y20.041 E4.31016
G1 X131.605 Y24.249 E4.50809
G0 F6000 X131.605 Y23.683
;TYPE:WALL-OUTER
G1 F1200 X135.341 Y19.947 E4.68382
G1 X135.239 Y19.7 E4.69271
G1 X127.971 Y19.7 E4.93444
G1 X127.869 Y19.947 E4.94333
G1 X131.605 Y23.683 E5.11906
G0 F6000 X131.464 Y23.823
G0 X136.105 Y28.749
;TYPE:WALL-INNER
G1 F1200 X140.454 Y24.4 E5.32362
G1 X136.246 Y20.192 E5.52155
G1 X136.105 Y20.051 E5.52819
G1 X135.964 Y20.192 E5.5335
G1 X131.756 Y24.4 E5.63916
G1 X136.105 Y28.749 E5.84373
G0 F6000 X136.105 Y28.183
;TYPE:WALL-OUTER
G1 F1200 X139.888 Y24.4 E6.02167
G1 X136.105 Y20.617 E6.19961
G1 X132.322 Y24.4 E6.37755
G1 X136.105 Y28.183 E6.55549
G0 F6000 X135.964 Y28.323
G0 X140.605 Y24.249
;TYPE:WALL-INNER
G1 F1200 X144.813 Y20.041 E6.75342
G1 X144.507 Y19.3 E6.78009
G1 X136.703 Y19.3 E7.03965
G1 X136.397 Y20.041 E7.06631
G1 X140.605 Y24.249 E7.17198
G0 F6000 X140.605 Y23.683
;TYPE:WALL-OUTER
G1 F1200 X144.341 Y19.947 E7.34771
G1 X144.239 Y19.7 E7.35659
G1 X136.971 Y19.7 E7.59833
G1 X136.869 Y19.947 E7.60722
G1 X140.605 Y23.683 E7.78295
G0 F6000 X140.464 Y23.823
G0 X145.105 Y28.749
;TYPE:WALL-INNER
G1 F1200 X149.313 Y24.541 E7.98088
G1 X149.454 Y24.4 E7.98751
G1 X149.313 Y24.259 E7.99283
G1 X145.246 Y20.192 E8.09494
G1 X145.105 Y20.051 E8.10157
G1 X144.964 Y20.192 E8.10689
G1 X140.756 Y24.4 E8.21255
G1 X145.105 Y28.749 E8.41711
G0 F6000 X145.105 Y28.183
;TYPE:WALL-OUTER
G1 F1200 X148.888 Y24.4 E8.59505
G1 X145.105 Y20.617 E8.773
G1 X141.322 Y24.4 E8.95094
G1 X145.105 Y28.183 E9.12888
G0 F6000 X144.964 Y28.323
G0 X149.464 Y33.108
;TYPE:WALL-INNER
G1 F1200 X150.205 Y32.802 E9.15554
G1 X150.205 Y24.998 E9.4151
G1 X149.464 Y24.692 E9.44177
G1 X145.256 Y28.9 E9.54743
G1 X149.464 Y33.108 E9.74536
G0 F6000 X149.558 Y32.636
;TYPE:WALL-OUTER
G1 F1200 X149.805 Y32.534 E9.75425
G1 X149.805 Y25.266 E9.99598
G1 X149.558 Y25.164 E10.00487
G1 X145.822 Y28.9 E10.1806
G1 X149.558 Y32.636 E10.35633
G0 F6000 X149.632 Y32.82
G0 X149.583 Y33.264
G0 X149.609 Y34.038
G0 X149.938 Y34.176
G0 X149.938 Y41.624
G0 X149.464 Y42.108
;TYPE:WALL-INNER
G1 F1200 X150.205 Y41.802 E10.383
G1 X150.205 Y33.998 E10.64256
G1 X149.464 Y33.692 E10.66922
G1 X145.256 Y37.9 E10.86716
G1 X149.464 Y42.108 E11.06509
G0 F6000 X149.558 Y41.636
;TYPE:WALL-OUTER
G1 F1200 X149.805 Y41.534 E11.07397
G1 X149.805 Y34.266 E11.31571
G1 X149.558 Y34.164 E11.3246
G1 X145.822 Y37.9 E11.50033
G1 X149.558 Y41.636 E11.67606
G0 F6000 X149.632 Y41.82
G0 X145.105 Y37.749
;TYPE:WALL-INNER
G1 F1200 X149.313 Y33.541 E11.78172
G1 X149.454 Y33.4 E11.78835
G1 X149.313 Y33.259 E11.79367
G1 X145.105 Y29.051 E11.89933
G1 X140.756 Y33.4 E12.10389
G1 X145.105 Y37.749 E12.30846
G0 F6000 X145.105 Y37.183
;TYPE:WALL-OUTER
G1 F1200 X148.888 Y33.4 E12.4864
G1 X145.105 Y29.617 E12.66434
G1 X141.322 Y33.4 E12.84228
G1 X145.105 Y37.183 E13.02022
G0 F6000 X144.964 Y37.323
G0 X140.605 Y33.249
;TYPE:WALL-INNER
G1 F1200 X144.954 Y28.9 E13.12942
G1 X140.605 Y24.551 E13.23863
G1 X136.256 Y28.9 E13.34783
G1 X140.605 Y33.249 E13.55239
G0 F6000 X140.605 Y32.683
;TYPE:WALL-OUTER
G1 F1200 X144.388 Y28.9 E13.73033
G1 X140.605 Y25.117 E13.90827
G1 X136.822 Y28.9 E14.08622
G1 X140.605 Y32.683 E14.26416
G0 F6000 X140.464 Y32.823
G0 X140.145 Y33.29
G0 X136.105 Y37.749
;TYPE:WALL-INNER
G1 F1200 X140.454 Y33.4 E14.46872
G1 X136.105 Y29.051 E14.57792
G1 X131.756 Y33.4 E14.78249
G1 X136.105 Y37.749 E14.98705
G0 F6000 X136.105 Y37.183
;TYPE:WALL-OUTER
G1 F1200 X139.888 Y33.4 E15.16499
G1 X136.105 Y29.617 E15.34293
G1 X132.322 Y33.4 E15.52087
G1 X136.105 Y37.183 E15.69881
G0 F6000 X135.964 Y37.323
G0 X131.605 Y33.249
;TYPE:WALL-INNER
G1 F1200 X135.954 Y28.9 E15.80802
G1 X131.605 Y24.551 E15.91722
G1 X127.256 Y28.9 E16.12178
G1 X131.605 Y33.249 E16.32635
G0 F6000 X131.605 Y32.683
;TYPE:WALL-OUTER
G1 F1200 X135.388 Y28.9 E16.50429
G1 X131.605 Y25.117 E16.68223
G1 X127.822 Y28.9 E16.86017
G1 X131.605 Y32.683 E17.03811
G0 F6000 X131.464 Y32.823
G0 X127.105 Y28.749
;TYPE:WALL-INNER
G1 F1200 X131.454 Y24.4 E17.14731
G1 X127.246 Y20.192 E17.25298
G1 X127.105 Y20.051 E17.25961
G1 X126.964 Y20.192 E17.26492
G1 X122.756 Y24.4 E17.46285
G1 X127.105 Y28.749 E17.66742
G0 F6000 X127.105 Y28.183
;TYPE:WALL-OUTER
G1 F1200 X130.888 Y24.4 E17.84536
G1 X127.105 Y20.617 E18.0233
G1 X123.322 Y24.4 E18.20124
G1 X127.105 Y28.183 E18.37918
G0 F6000 X126.964 Y28.323
G0 X122.605 Y24.249
;TYPE:WALL-INNER
G1 F1200 X126.813 Y20.041 E18.48484
G1 X126.507 Y19.3 E18.51151
G1 X118.703 Y19.3 E18.77107
G1 X118.397 Y20.041 E18.79773
G1 X122.605 Y24.249 E18.99567
G0 F6000 X122.605 Y23.683
;TYPE:WALL-OUTER
G1 F1200 X126.341 Y19.947 E19.1714
G1 X126.239 Y19.7 E19.18028
G1 X118.971 Y19.7 E19.42202
G1 X118.869 Y19.947 E19.43091
G1 X122.605 Y23.683 E19.60664
G0 F6000 X122.464 Y23.823
G0 X122.145 Y24.29
G0 X118.105 Y28.749
;TYPE:WALL-INNER
G1 F1200 X122.454 Y24.4 E19.8112
G1 X118.246 Y20.192 E19.91686
G1 X118.105 Y20.051 E19.9235
G1 X117.964 Y20.192 E19.92881
G1 X113.756 Y24.4 E20.12674
G1 X118.105 Y28.749 E20.33131
G0 F6000 X118.105 Y28.183
;TYPE:WALL-OUTER
G1 F1200 X121.888 Y24.4 E20.50925
G1 X118.105 Y20.617 E20.68719
G1 X114.322 Y24.4 E20.86513
G1 X118.105 Y28.183 E21.04307
G0 F6000 X117.964 Y28.323
G0 X113.605 Y24.249
;TYPE:WALL-INNER
G1 F1200 X117.813 Y20.041 E21.14873
G1 X117.507 Y19.3 E21.1754
G1 X109.703 Y19.3 E21.43496
G1 X109.397 Y20.041 E21.46162
G1 X113.605 Y24.249 E21.65955
G0 F6000 X113.605 Y23.683
;TYPE:WALL-OUTER
G1 F1200 X117.341 Y19.947 E21.83528
G1 X117.239 Y19.7 E21.84417
G1 X109.971 Y19.7 E22.08591
G1 X109.869 Y19.947 E22.09479
G1 X113.605 Y23.683 E22.27052
G0 F6000 X113.464 Y23.823
G0 X113.145 Y24.29
G0 X109.105 Y28.749
;TYPE:WALL-INNER
G1 F1200 X113.454 Y24.4 E22.47509
G1 X109.246 Y20.192 E22.58075
G1 X109.105 Y20.051 E22.58738
G1 X108.964 Y20.192 E22.5927
G1 X104.756 Y24.4 E22.79063
G1 X109.105 Y28.749 E22.99519
G0 F6000 X109.105 Y28.183
;TYPE:WALL-OUTER
G1 F1200 X112.888 Y24.4 E23.17313
G1 X109.105 Y20.617 E23.35107
G1 X105.322 Y24.4 E23.52901
G1 X109.105 Y28.183 E23.70696
G0 F6000 X108.964 Y28.323
G0 X104.605 Y24.249
;TYPE:WALL-INNER
G1 F1200 X108.813 Y20.041 E23.81262
G1 X108.507 Y19.3 E23.83928
G1 X100.703 Y19.3 E24.09884
G1 X100.397 Y20.041 E24.12551
G1 X104.605 Y24.249 E24.32344
G0 F6000 X104.605 Y23.683
;TYPE:WALL-OUTER
G1 F1200 X108.341 Y19.947 E24.49917
G1 X108.239 Y19.7 E24.50806
G1 X100.971 Y19.7 E24.74979
G1 X100.869 Y19.947 E24.75868
G1 X104.605 Y23.683 E24.93441
G0 F6000 X104.464 Y23.823
G0 X104.145 Y24.29
G0 X100.105 Y28.749
;TYPE:WALL-INNER
G1 F1200 X104.454 Y24.4 E25.13898
G1 X100.246 Y20.192 E25.24464
G1 X100.105 Y20.051 E25.25127
G1 X99.964 Y20.192 E25.25659
G1 X95.756 Y24.4 E25.45452
G1 X100.105 Y28.749 E25.65908
G0 F6000 X100.105 Y28.183
;TYPE:WALL-OUTER
G1 F1200 X103.888 Y24.4 E25.83702
G1 X100.105 Y20.617 E26.01496
G1 X96.322 Y24.4 E26.1929
G1 X100.105 Y28.183 E26.37084
G0 F6000 X99.964 Y28.323
G0 X95.605 Y24.249
;TYPE:WALL-INNER
G1 F1200 X99.813 Y20.041 E26.47651
G1 X99.507 Y19.3 E26.50317
G1 X91.703 Y19.3 E26.76273
G1 X91.397 Y20.041 E26.7894
G1 X95.605 Y24.249 E26.98733
G0 F6000 X95.605 Y23.683
;TYPE:WALL-OUTER
G1 F1200 X99.341 Y19.947 E27.16306
G1 X99.239 Y19.7 E27.17195
G1 X91.971 Y19.7 E27.41368
G1 X91.869 Y19.947 E27.42257
G1 X95.605 Y23.683 E27.5983
G0 F6000 X95.464 Y23.823
G0 X95.145 Y24.29
G0 X91.105 Y28.749
;TYPE:WALL-INNER
G1 F1200 X95.454 Y24.4 E27.80286
G1 X91.246 Y20.192 E27.90853
G1 X91.105 Y20.051 E27.91516
G1 X90.964 Y20.192 E27.92047
G1 X86.897 Y24.259 E28.02259
G1 X86.756 Y24.4 E28.02922
G1 X86.897 Y24.541 E28.03453
G1 X91.105 Y28.749 E28.23247
G0 F6000 X91.105 Y28.183
;TYPE:WALL-OUTER
G1 F1200 X94.888 Y24.4 E28.41041
G1 X91.105 Y20.617 E28.58835
G1 X87.322 Y24.4 E28.76629
G1 X91.105 Y28.183 E28.94423
G0 F6000 X90.964 Y28.323
G0 X90.645 Y28.79
G0 X86.746 Y33.108
;TYPE:WALL-INNER
G1 F1200 X90.954 Y28.9 E29.14216
G1 X86.746 Y24.692 E29.24782
G1 X86.005 Y24.998 E29.27449
G1 X86.005 Y32.802 E29.53405
G1 X86.746 Y33.108 E29.56071
G0 F6000 X86.652 Y32.636
;TYPE:WALL-OUTER
G1 F1200 X90.388 Y28.9 E29.73644
G1 X86.652 Y25.164 E29.91217
G1 X86.405 Y25.266 E29.92106
G1 X86.405 Y32.534 E30.1628
G1 X86.652 Y32.636 E30.17168
G0 F6000 X86.577 Y32.819
G0 X86.627 Y33.264
G0 X86.598 Y34.037
G0 X86.272 Y34.176
G0 X86.272 Y41.624
G0 X86.746 Y42.108
;TYPE:WALL-INNER
G1 F1200 X90.954 Y37.9 E30.36962
G1 X86.746 Y33.692 E30.56755
G1 X86.005 Y33.998 E30.59421
G1 X86.005 Y41.802 E30.85377
G1 X86.746 Y42.108 E30.88044
G0 F6000 X86.652 Y41.636
;TYPE:WALL-OUTER
G1 F1200 X90.388 Y37.9 E31.05617
G1 X86.652 Y34.164 E31.2319
G1 X86.405 Y34.266 E31.24079
G1 X86.405 Y41.534 E31.48252
G1 X86.652 Y41.636 E31.49141
G0 F6000 X86.577 Y41.819
G0 X91.105 Y37.749
;TYPE:WALL-INNER
G1 F1200 X95.454 Y33.4 E31.69597
G1 X91.105 Y29.051 E31.90054
G1 X86.897 Y33.259 E32.0062
G1 X86.756 Y33.4 E32.01283
G1 X86.897 Y33.541 E32.01815
G1 X91.105 Y37.749 E32.12381
G0 F6000 X91.105 Y37.183
;TYPE:WALL-OUTER
G1 F1200 X94.888 Y33.4 E32.30175
G1 X91.105 Y29.617 E32.47969
G1 X87.322 Y33.4 E32.65763
G1 X91.105 Y37.183 E32.83557
G0 F6000 X90.964 Y37.323
G0 X95.605 Y33.249
;TYPE:WALL-INNER
G1 F1200 X99.954 Y28.9 E33.04014
G1 X95.605 Y24.551 E33.14934
G1 X91.256 Y28.9 E33.25854
G1 X95.605 Y33.249 E33.36775
G0 F6000 X95.605 Y32.683
;TYPE:WALL-OUTER
G1 F1200 X99.388 Y28.9 E33.54569
G1 X95.605 Y25.117 E33.72363
G1 X91.822 Y28.9 E33.90157
G1 X95.605 Y32.683 E34.07951
G0 F6000 X95.464 Y32.823
G0 X100.105 Y37.749
;TYPE:WALL-INNER
G1 F1200 X104.454 Y33.4 E34.28407
G1 X100.105 Y29.051 E34.48864
G1 X95.756 Y33.4 E34.59784
G1 X100.105 Y37.749 E34.8024
G0 F6000 X100.105 Y37.183
;TYPE:WALL-OUTER
G1 F1200 X103.888 Y33.4 E34.98034
G1 X100.105 Y29.617 E35.15828
G1 X96.322 Y33.4 E35.33622
G1 X100.105 Y37.183 E35.51417
G0 F6000 X99.964 Y37.323
G0 X104.605 Y33.249
;TYPE:WALL-INNER
G1 F1200 X108.954 Y28.9 E35.71873
G1 X104.605 Y24.551 E35.82793
G1 X100.256 Y28.9 E35.93714
G1 X104.605 Y33.249 E36.04634
G0 F6000 X104.605 Y32.683
;TYPE:WALL-OUTER
G1 F1200 X108.388 Y28.9 E36.22428
G1 X104.605 Y25.117 E36.40222
G1 X100.822 Y28.9 E36.58016
G1 X104.605 Y32.683 E36.7581
G0 F6000 X104.464 Y32.823
G0 X109.105 Y37.749
;TYPE:WALL-INNER
G1 F1200 X113.454 Y33.4 E36.96266
G1 X109.105 Y29.051 E37.16723
G1 X104.756 Y33.4 E37.27643
G1 X109.105 Y37.749 E37.481
G0 F6000 X109.105 Y37.183
;TYPE:WALL-OUTER
G1 F1200 X112.888 Y33.4 E37.65894
G1 X109.105 Y29.617 E37.83688
G1 X105.322 Y33.4 E38.01482
G1 X109.105 Y37.183 E38.19276
G0 F6000 X108.964 Y37.323
G0 X113.605 Y33.249
;TYPE:WALL-INNER
G1 F1200 X117.954 Y28.9 E38.39732
G1 X113.605 Y24.551 E38.50652
G1 X109.256 Y28.9 E38.61573
G1 X113.605 Y33.249 E38.72493
G0 F6000 X113.605 Y32.683
;TYPE:WALL-OUTER
G1 F1200 X117.388 Y28.9 E38.90287
G1 X113.605 Y25.117 E39.08081
G1 X109.822 Y28.9 E39.25875
G1 X113.605 Y32.683 E39.43669
G0 F6000 X113.745 Y32.824
G0 X114.065 Y33.29
G0 X118.105 Y37.749
;TYPE:WALL-INNER
G1 F1200 X122.454 Y33.4 E39.64126
G1 X118.105 Y29.051 E39.84582
G1 X113.756 Y33.4 E39.95502
G1 X118.105 Y37.749 E40.15959
G0 F6000 X118.105 Y37.183
;TYPE:WALL-OUTER
G1 F1200 X121.888 Y33.4 E40.33753
G1 X118.105 Y29.617 E40.51547
G1 X114.322 Y33.4 E40.69341
G1 X118.105 Y37.183 E40.87135
G0 F6000 X117.964 Y37.323
G0 X122.605 Y33.249
;TYPE:WALL-INNER
